Educa/src/img/icons/favicon.svg

<svg xmlns="http://www.w3.org/2000/svg" width="512" height="512" fill="none" xmlns:v="https://vecta.io/nano"><rect width="512" height="512" rx="120" fill="#f3f8ff"/><path d="M40 299.52v-88.04h56.368v17.98H60.877v16.12h31.316v17.98H60.877v17.98h36.719v17.98H40zm71.118 0v-88.04h35.737c6.795 0 13.017 1.075 18.666 3.224 5.649 2.067 10.521 5.043 14.614 8.928 4.176 3.885 7.369 8.515 9.579 13.888 2.293 5.373 3.439 11.325 3.439 17.856s-1.146 12.483-3.439 17.856a40.2 40.2 0 0 1-9.579 14.012c-4.093 3.885-9.006 6.903-14.737 9.052-5.649 2.149-11.912 3.224-18.789 3.224h-35.491zm21.368-19.096h13.018c5.24 0 9.742-.992 13.509-2.976 3.847-2.067 6.795-4.96 8.842-8.68 2.128-3.72 3.193-8.143 3.193-13.268s-1.065-9.548-3.193-13.268c-2.047-3.72-4.995-6.572-8.842-8.556-3.767-2.067-8.269-3.1-13.509-3.1h-13.018v49.848zM243.086 302c-5.894 0-11.216-.909-15.964-2.728-4.667-1.819-8.72-4.423-12.158-7.812-3.357-3.389-5.936-7.44-7.737-12.152-1.801-4.795-2.702-10.127-2.702-15.996V211.48h21.368v50.84c0 4.051.696 7.564 2.088 10.54 1.474 2.976 3.48 5.291 6.018 6.944 2.62 1.571 5.731 2.356 9.333 2.356s6.673-.785 9.211-2.356c2.619-1.653 4.625-3.968 6.017-6.944 1.474-2.976 2.211-6.489 2.211-10.54v-50.84h21.368v51.832c0 5.869-.941 11.201-2.824 15.996-1.802 4.712-4.422 8.763-7.86 12.152-3.357 3.389-7.45 5.993-12.281 7.812S248.981 302 243.086 302zm94.591 0c-5.076 0-9.866-.744-14.369-2.232-4.421-1.488-8.473-3.596-12.158-6.324-3.602-2.728-6.713-5.952-9.333-9.672-2.62-3.803-4.667-8.019-6.14-12.648-1.392-4.712-2.088-9.713-2.088-15.004s.696-10.292 2.088-15.004c1.473-4.795 3.52-9.135 6.14-13.02 2.702-3.968 5.895-7.357 9.579-10.168a40.43 40.43 0 0 1 12.158-6.572c4.503-1.571 9.251-2.356 14.245-2.356 4.667 0 9.088.661 13.264 1.984 4.257 1.323 8.064 3.224 11.421 5.704a34.12 34.12 0 0 1 8.719 8.804c2.456 3.389 4.298 7.233 5.526 11.532l-20.877 4.712c-1.801-4.133-4.298-7.316-7.491-9.548s-6.836-3.348-10.93-3.348c-3.111 0-6.018.703-8.719 2.108-2.62 1.323-4.913 3.224-6.877 5.704-1.965 2.397-3.48 5.249-4.544 8.556-1.065 3.224-1.597 6.779-1.597 10.664 0 3.803.532 7.316 1.597 10.54s2.579 6.035 4.544 8.432a21.47 21.47 0 0 0 7 5.456c2.701 1.24 5.649 1.86 8.842 1.86 4.257 0 7.982-1.075 11.175-3.224 3.275-2.232 5.895-5.456 7.86-9.672l20.877 4.712c-1.637 5.787-4.38 10.788-8.228 15.004-3.766 4.133-8.351 7.357-13.755 9.672-5.403 2.232-11.38 3.348-17.929 3.348zm41.586-2.48l34.509-88.04h22.719L471 299.52h-22.105l-6.141-17.112h-35.982l-6.14 17.112h-21.369zm34.018-35.216h22.965l-11.544-32.116-11.421 32.116z" fill="#292e37"/></svg>

<svg width="512" height="512" viewBox="0 0 512 512" fill="none" xmlns="http://www.w3.org/2000/svg">
<rect width="512" height="512" rx="120" fill="#F3F8FF"/>
<path d="M40 299.52V211.48H96.3684V229.46H60.8772V245.58H92.193V263.56H60.8772V281.54H97.5965V299.52H40Z" fill="#292E37"/>
<path d="M111.118 299.52V211.48H146.855C153.65 211.48 159.872 212.555 165.521 214.704C171.17 216.771 176.042 219.747 180.135 223.632C184.311 227.517 187.504 232.147 189.714 237.52C192.007 242.893 193.153 248.845 193.153 255.376C193.153 261.907 192.007 267.859 189.714 273.232C187.504 278.605 184.311 283.276 180.135 287.244C176.042 291.129 171.129 294.147 165.398 296.296C159.749 298.445 153.486 299.52 146.609 299.52H111.118ZM132.486 280.424H145.504C150.744 280.424 155.246 279.432 159.013 277.448C162.86 275.381 165.808 272.488 167.855 268.768C169.983 265.048 171.048 260.625 171.048 255.5C171.048 250.375 169.983 245.952 167.855 242.232C165.808 238.512 162.86 235.66 159.013 233.676C155.246 231.609 150.744 230.576 145.504 230.576H132.486V280.424Z" fill="#292E37"/>
<path d="M243.086 302C237.192 302 231.87 301.091 227.122 299.272C222.455 297.453 218.402 294.849 214.964 291.46C211.607 288.071 209.028 284.02 207.227 279.308C205.426 274.513 204.525 269.181 204.525 263.312V211.48H225.893V262.32C225.893 266.371 226.589 269.884 227.981 272.86C229.455 275.836 231.461 278.151 233.999 279.804C236.619 281.375 239.73 282.16 243.332 282.16C246.934 282.16 250.005 281.375 252.543 279.804C255.162 278.151 257.168 275.836 258.56 272.86C260.034 269.884 260.771 266.371 260.771 262.32V211.48H282.139V263.312C282.139 269.181 281.198 274.513 279.315 279.308C277.513 284.02 274.893 288.071 271.455 291.46C268.098 294.849 264.005 297.453 259.174 299.272C254.344 301.091 248.981 302 243.086 302Z" fill="#292E37"/>
<path d="M337.677 302C332.601 302 327.811 301.256 323.308 299.768C318.887 298.28 314.835 296.172 311.15 293.444C307.548 290.716 304.437 287.492 301.817 283.772C299.197 279.969 297.15 275.753 295.677 271.124C294.285 266.412 293.589 261.411 293.589 256.12C293.589 250.829 294.285 245.828 295.677 241.116C297.15 236.321 299.197 231.981 301.817 228.096C304.519 224.128 307.712 220.739 311.396 217.928C315.08 215.035 319.133 212.844 323.554 211.356C328.057 209.785 332.805 209 337.799 209C342.466 209 346.887 209.661 351.063 210.984C355.32 212.307 359.127 214.208 362.484 216.688C365.922 219.085 368.829 222.02 371.203 225.492C373.659 228.881 375.501 232.725 376.729 237.024L355.852 241.736C354.051 237.603 351.554 234.42 348.361 232.188C345.168 229.956 341.525 228.84 337.431 228.84C334.32 228.84 331.413 229.543 328.712 230.948C326.092 232.271 323.799 234.172 321.835 236.652C319.87 239.049 318.355 241.901 317.291 245.208C316.226 248.432 315.694 251.987 315.694 255.872C315.694 259.675 316.226 263.188 317.291 266.412C318.355 269.636 319.87 272.447 321.835 274.844C323.799 277.159 326.133 278.977 328.835 280.3C331.536 281.54 334.484 282.16 337.677 282.16C341.934 282.16 345.659 281.085 348.852 278.936C352.127 276.704 354.747 273.48 356.712 269.264L377.589 273.976C375.952 279.763 373.209 284.764 369.361 288.98C365.595 293.113 361.01 296.337 355.606 298.652C350.203 300.884 344.226 302 337.677 302Z" fill="#292E37"/>
<path d="M379.263 299.52L413.772 211.48H436.491L471 299.52H448.895L442.754 282.408H406.772L400.632 299.52H379.263ZM413.281 264.304H436.246L424.702 232.188L413.281 264.304Z" fill="#292E37"/>
</svg>
